X:213
T:The Bridge of Bamore
O:scotland
R:reel
C:traditional
N:Tune books, related recordings
N:..... Cranford Publications <http://www.cranfordpub.com>
D:Jerry Holland, Crystal Clear
B: The Dungreen Collection
Q:333
L:1/8
M:C|
K:A
B,|A,3 f edcB|AF F/F/F F2 EF|{E}A3 f ed c2|BcdB cAA:|
g|aece aecB|AF F/F/F F2 EF|aece fbec|BABc Aefg|
afge fbec|BF F/F/F F2 EF|{E}A2 Af ed c2|BcdB cAA|]
